X: 38926
T: Support From America No. 1
R: reel
M: 4/4
K: Dmajor
|:D2 FA d2fd|BABc dBAF|D2 FA dfed|BE E2 dBAF|
D2 FA dfeg|fddc dfaf|g2 gf gfed|1 cded cAGE:|2 cded cABc||
|:d2 fd Adfa|afaf eBBA|d2 fd Adfa|g2 fg egfe|
d2 fd Adfa|afaf efge|fa a2 b2 af|1 g2 ge cABc:|2 g2 ge cAGE|D4||

